X:1
T:Be Not Afraid
T:Charles Hutchinson Gabriel
T:Be Not Afraid
T:Public Domain
T:Public Domain
T:Public Domain
C:Charles Hutchinson Gabriel
Z:Public Domain
%%score ( 1 2 ) ( 3 4 )
L:1/8
M:6/8
K:Ab
V:1 treble 
V:2 treble 
V:3 bass 
V:4 bass 
V:1
 [CE] | [CE]2 [CA] [CA]2 [CB] | [DA]2 [DG] [DG]2 [DF] | [DG]2 [Dd] [DF]2 [Fd] | [Ec]3- [Ec]2 [CE] | %5
w: 1.~Come|weal, come woe wher-|e’er we go, God|is not far a-|way; * He|
w: 2.~Tho’|clouds may veil the|stars that sail O’er|bound- less seas of|space, * And|
w: 3.~Thro’|chang- ing years, in|joy and tears, The|change- less One a-|bides, * And|
 [CE]2 [CA] [CA]2 [CB] | [DA]2 [DG] [DG]2 [DF] | [DG]2 [Fd] [Ec]2 [DB] | [CA]3- [CA]2 [Ec] | %9
w: holds the storm- y|winds that blow, And|molds the gold- en|day. * The|
w: lights a- long all|shores may fail, God|will not hide His|face; * But|
w: safe the soul from|doubt and fears That|in His bo- som|hides. * On|
 [=Ec]2 [Ec] [EG]2 [GB] | [GB]2 [FA] [FA]2 [FA] | [FB]2 [FB] [=DF]2 [FA] | ([FA]3 [EG]2) E | %13
w: dark- est night to|Him is light, And|thro’ the shine or|shade, * He|
w: sweet- ly whis- pers|while His hands Up-|on His own are|laid, * “Lo!|
w: nois- y street, in|still re- treat, Thro’|vales of deep- est|shade, * That|
 [EA]2 [EB] [Ec]2 [Ee] | [Ge]2 [Ge] [GB]2 [EG] | [=Dc]2 [DB] [DA]2 [DF] | (E3 [De]3) |: %17
w: in tones of ten-|der might, “My child,|be not a- fraid.”||
w: thy side thy Fa-|ther stands, My child,|be not a- fraid.”|Child, *|
w: is heard with ac-|cents sweet, “My child,|be not a- fraid.”|Child, *|
"^Refrain" C2 E [Fd]2 [Fd] | E2 E [Ec]2 z | C2 C [CF]2 [CF] | C2 C [CE]2 [CE] | %21
w: ||||
w: not, be not afraid;|be not, be|* afraid The dark-|night to Him is|
w: not, be not afraid;|be not, be|* afraid He speaks|tones of ~ ~|
 [DE]2 [DG] [DG]2 [DF] | [DE]2 [Ed] [Gd]2 [Ed] | [Ec]2 [Ec] [EB]2 [=DA] | ([EB]3 [De]3) :| %25
w: ||||
w: And thro’ the shine|or shade, * *|||
w: ~ ~ ~ ~|~ ~ ten- der|might, “My child, be|not *|
 E2 [Ee] [Fe]2 [Fd] | [Ec]2 [CE] [DB]2 [DE] | [CA]3- [CA]2 |] %28
w: |||
w: |||
w: a- fraid.” * *|||
V:2
 x | x6 | x6 | x6 | x6 | x6 | x6 | x6 | x6 | x6 | x6 | x6 | x5 E | x6 | x6 | x6 | E3 x3 |: c3 x3 | %18
w: ||||||||||||speaks||||||
w: ||||||||||||at||||be|Child,|
w: ||||||||||||voice||||be|Child,|
 c3- x3 | E3 x3 | E3- x3 | x6 | x6 | x6 | x6 :| E2 x4 | x6 | x5 |] %28
w: ||||||||||
w: not|est|light,||||||||
w: not|in|~||||||||
V:3
 [A,,A,] | [A,,A,]2 [A,,E,] [A,,E,]2 [A,,E,] | [B,,E,]2 [B,,E,] [B,,E,]2 [B,,E,] | %3
 E,2 E, [E,G,]2 [E,G,] | A,3- A,2 [A,,A,] | [A,,A,]2 [A,,E,] [A,,E,]2 [A,,E,] | %6
 [B,,E,]2 [B,,E,] [B,,E,]2 [B,,E,] | E,2 [E,G,] [E,A,]2 [E,G,] | [A,,A,]3- [A,,A,]2 [A,,A,] | %9
 [C,G,]2 [C,G,] [C,C]2 [=E,C] | [F,C]2 [F,C] [F,C]2 [F,C] | [B,,=D]2 [B,,D] [B,,B,]2 [=D,B,] | %12
 [E,B,]3- [E,B,]2 [D,G,] | [C,A,]2 [E,G,] A,2 [A,,C] | [B,,B,]2 [B,,B,] [B,,E]2 [B,,B,] | %15
 [B,,A,]2 [B,,A,] [B,,F,]2 [B,,B,] | ([E,-G,]3 [E,B,]3) |: A,2 A, A,2 A, | A,2 A, A,2 z | %19
 [A,,A,]2 [A,,A,] [A,,A,]2 [A,,A,] | [A,,A,]2 [A,,A,] [A,,A,]2 [A,,A,] | %21
 [B,,G,]2 [B,,E,] [B,,E,]2 [B,,G,] | [E,G,]2 [E,G,] [E,B,]2 [E,G,] | A,2 A, [G,B,]2 [F,B,] | %24
 [E,-G,]3 [E,B,]3 :| [C,A,]2 [C,A,] [D,A,]2 [D,A,] | [E,A,]2 [E,A,] [E,G,]2 [E,G,] | %27
 [A,,A,]3- [A,,A,]2 |] %28
V:4
 x | x6 | x6 | E,2 E, x3 | A,3- A,2 x | x6 | x6 | E,2 x4 | x6 | x6 | x6 | x6 | x6 | x3 A,2 x | x6 | %15
 x6 | x6 |: A,2 A, A,2 A, | A,2 A, A,2 x | x6 | x6 | x6 | x6 | A,2 A, x3 | x6 :| x6 | x6 | x5 |] %28

